!!!ONB: MCCC : IFC0046_04 : Extracted Monophonic Melody
!!!COM: Chopin, Frédéric
!!!OPR: 2 Mazurkas
!!!OMV: 4
!!!SCT: B.16
!!!ODT: 1825///
**kern
*thru
*staff1
*Ipiano
*k[b-e-a-d-]
*A-:
*M3/4
*>A
4e-
=1
8a-
8cc
8ee-
8ee
8ff
8g
=2
8a-
8cc
8ee-
8dd
4ee-
=3
8dd-
8ff
8gg
8bb-
8aa-
8ff
=4
8dd-
8ee
8ff
8ee
4ff
=5
8g
8a-
8b-
8cc
8dd-
8b
=6
8cc
16r
16d
8e-
8d
4e-
=7
8b-
8cc
8dd-
8ee-
8ff
8dd
=8
8ee-
16r
16d
8e-
8d
4e-
=9
8a-
8cc
8ee-
8ee
8ff
8g
=10
8a-
8cc
8ee-
8dd
4ee-
=11
8dd-
8ff
8gg
8bb-
8aa-
8ff
=12
8dd-
8ee
8ff
8ee
4ff
=13
8g
8a-
8b-
8cc
8dd-
8b
=14
8cc
16r
16d
8e-
8d
4e-
=15
8b-
8cc
8dd-
8ee-
8ff
8dd
=16
8ee-
16r
16d
8e-
8d
4e-
=17
2f
4g
=18
8.g
16a-
8a-
8b-
4cc
=19
8cc
8dd-
4.cc
8b-
=20
8dd-
8cc
8cc
8b
4cc
=21
2f
[4g
=22
8.g]
16a-
8a-
8b-
4cc[
=23
8cc]
8dd
4.b
8g
=24
8dd
8ee-
2cc
=25
2f
[4g
=26
8.g]
16a-
8a-
8b-
4cc[
=27
8cc]
8dd-
4.cc
8b-
=28
8dd-
8cc
8cc
8b
4cc
=29
2f
[4g
=30
8.g]
16a-
8a-
8b-
[4cc
=31
8cc]
8dd
4.b
8g
=32
8dd
8ee-
4.cc
8ee-
=33
2ee-
8ee-
8ee-
=34
2dd
4cc
=35
2ee-
8ee-
8ee-
=36
4dd
2cc
=37
2ee-
8ee-
8ee-
=38
2dd
4cc
=39
2ee-
8ee-
8ee-
=40
4dd
2cc
=41
4r
8g
8g#
8a
8G
=42
4c
8g
8f#
4g
=43
4c
8g
8b
8a
8B
=44
2.c
=45
2e
[4f
=46
8f]
8e
8e
8d#
4e[
=47
4e]
8e
8g
4f
=48
8e
8B
4c
8g
8b
=49
2cc
8g
8b
=50
8cc
8b
8g
8dd
8cc
8b
=51
8g
8dd-
8cc
8b
8g
8dd-
=52
8cc
8b
8b-
8dd-
8cc
8b-
=53
*>B
8a-
8cc
8ee-
8ee
8ff
8g
=54
8a-
8cc
8ee-
8dd
4ee-
=55
8dd-
8ff
8gg
8bb-
8aa-
8ff
=56
8dd-
8ee
8ff
8ee
4ff
=57
8g
8a-
8b-
8cc
8dd-
8b
=58
8cc
16r
16d
8e-
8d
4e-
=59
8b-
8cc
8dd-
8ee-
8ff
8dd
=60
8ee-
16r
16d
8e-
8d
4e-
=61
*>B
8a-
8cc
8ee-
8ee
8ff
8g
=62
8a-
8cc
8ee-
8dd
4ee-
=63
8dd-
8ff
8gg
8bb-
8aa-
8ff
=64
8dd-
8ee
8ff
8ee
4ff
=65
8g
8a-
8b-
8cc
8dd-
8b
=66
8cc
16r
16d
8e-
8d
4e-
=67
8b-
8cc
8dd-
8ee-
8ff
8dd
=68
8ee-
16r
16d
8e-
8d
4e-
=69
*>C
2f
[4g
=70
8.g]
16a-
8a-
8b-
4cc[
=71
8cc]
8dd-
4.cc
8b-
=72
8dd-
8cc
8cc
8b
4cc
=73
2f
[4g
=74
8.g]
16a-
8a-
8b-
4cc[
=75
8cc]
8dd
4.b
8g
=76
8dd
8ee-
2cc
=77
2f
[4g
=78
8.g]
16a-
8a-
8b-
4cc[
=79
8cc]
8dd-
4.cc
8b-
=80
8dd-
8cc
8cc
8b
4cc
=81
2f
[4g
=82
8.g]
16a-
8a-
8b-
4cc
==
*-
